X:1308
T:Fly Not Yet
P:Bide ye yet
C:Old Scottish Song (taken here from Surenne)
R:Jig (8x48) ABABAB
B:RSCDS 13-8
Z:Anselm Lingnau <anselm@strathspey.org>
M:6/8
L:1/8
K:Dm
c/B/|"F"A>GA F2G|A2c BAG|A>GA F2G|"Dm"A2d d2 c/B/|
     "F"A>GA F2G|A2c BAG|"Dm"A2d d>ef|A2d d2||
A|"Dm"A2d d>ef|"Am"A2c c2 B|"Dm"A2d d>ef|A2d d2 c/B/|
  "F"A2f f>ga|A2c c2B|[A2F2][GE] "Bb"[F2D2][GE]|"Dm"[A2F2-][dF-][d2F2]|]
